X: 1320
T:John Naughton's
R:Reel
S:Paul O'Shaughnessy, Dublin (fiddle)
D:Television broadcast
N:As played
M:4/4
Z:Bernie Stocks
K:G
ABAG (3.E.G.E DE | G2BG cGBG | ABAG (3EFE D2 | egdB {d}BA (3.A.A.A |
ABAG (3EFE DE | (3.G.G.G BG cGBG | ABAG (3EFE D2 | egdB {d}BAA2 ||
{b}ageg (3.a.a.a ba | gede (3.g.g.g fg | {b}agea {bag}a2 ga | bg(3.g.g.g bg~g2 |
{b}agea {b}agef | gedB {d}BAAd | ea~a2 g2ab | gedB {d}BAA2 ||
